X:5029
T:The March Sky
R:Hornpipe
C:Aidan Crossey
M:4/4
K:G
Bdde dBAG|ceef (3ggg fe|dBGB cAFA|GABc dBAG|
Bdde dBAG|ceef (3ggg fe|dBGB cAFA|GABA GABd||
(3ggg af gdBG|cBcd egfe|dBGB cAFA|GABc (3ddd ef|
(3ggg af gdBG|cBcd egfe|dBGB cAFA|G2 B2 G4||
